build/svg/cmd/32/matchgroup.svg

<?xml version="1.0" encoding="UTF-8" standalone="no"?>
<svg
   xmlns:dc="http://purl.org/dc/elements/1.1/"
   xmlns:cc="http://creativecommons.org/ns#"
   xmlns:rdf="http://www.w3.org/1999/02/22-rdf-syntax-ns#"
   xmlns:svg="http://www.w3.org/2000/svg"
   xmlns="http://www.w3.org/2000/svg"
   xmlns:sodipodi="http://sodipodi.sourceforge.net/DTD/sodipodi-0.dtd"
   xmlns:inkscape="http://www.inkscape.org/namespaces/inkscape"
   viewBox="0 0 32 32"
   version="1.1"
   id="svg4"
   sodipodi:docname="matchgroup.svg"
   inkscape:export-filename="/home/jupiter007/Libreoffice yaru theme fullcolor/build/cmd/32/matchgroup.png"
   inkscape:export-xdpi="96"
   inkscape:export-ydpi="96"
   inkscape:version="0.92.5 (2060ec1f9f, 2020-04-08)">
  <metadata
     id="metadata10">
    <rdf:RDF>
      <cc:Work
         rdf:about="">
        <dc:format>image/svg+xml</dc:format>
        <dc:type
           rdf:resource="http://purl.org/dc/dcmitype/StillImage" />
      </cc:Work>
    </rdf:RDF>
  </metadata>
  <defs
     id="defs8" />
  <sodipodi:namedview
     pagecolor="#ffffff"
     bordercolor="#666666"
     borderopacity="1"
     objecttolerance="10"
     gridtolerance="10"
     guidetolerance="10"
     inkscape:pageopacity="0"
     inkscape:pageshadow="2"
     inkscape:window-width="1920"
     inkscape:window-height="1011"
     id="namedview6"
     showgrid="true"
     inkscape:zoom="20.85965"
     inkscape:cx="7.0509399"
     inkscape:cy="10.39197"
     inkscape:window-x="0"
     inkscape:window-y="32"
     inkscape:window-maximized="1"
     inkscape:current-layer="svg4">
    <inkscape:grid
       type="xygrid"
       id="grid817" />
  </sodipodi:namedview>
  <path
     sodipodi:nodetypes="cssccssccssccssccccccccccc"
     style="opacity:0.6;fill:#000000;stroke:#000000;stroke-width:2;stroke-linejoin:round;stroke-miterlimit:4;stroke-dasharray:none"
     inkscape:connector-curvature="0"
     id="path821"
     d="M 11.723047,4 C 9.9462169,4 9.0003907,4.7063656 9.0003907,6.5097656 v 2.4414063 c 0,0.0161 -0.00195,0.032728 -0.00195,0.048828 h 0.00195 V 12.595703 C 9.0003907,13.709503 8.9661957,15 7.9847657,15 H 7 v 2 h 0.9847657 c 0.9814799,0 1.015625,1.290497 1.015625,2.404297 V 23 h -0.00195 c 2e-5,0.0162 0.00195,0.03273 0.00195,0.04883 v 2.441406 C 9.0003907,27.293634 9.9462169,28 11.723047,28 H 12 v -2 c -1.18455,0 -1,-0.478337 -1,-2.210937 V 18.40625 C 11,17.57535 10.795295,16.338872 9.796875,15.826172 10.795295,15.313472 11,14.07514 11,13.24414 V 8.2109374 C 11.00027,6.4783374 10.81538,6 12,6 V 4 Z" />
  <path
     d="M 11.723047,4 C 9.9462169,4 9.0003907,4.7063656 9.0003907,6.5097656 v 2.4414063 c 0,0.0161 -0.00195,0.032728 -0.00195,0.048828 h 0.00195 V 12.595703 C 9.0003907,13.709503 8.9661957,15 7.9847657,15 H 7 v 2 h 0.9847657 c 0.9814799,0 1.015625,1.290497 1.015625,2.404297 V 23 h -0.00195 c 2e-5,0.0162 0.00195,0.03273 0.00195,0.04883 v 2.441406 C 9.0003907,27.293634 9.9462169,28 11.723047,28 H 12 v -2 c -1.18455,0 -1,-0.478337 -1,-2.210937 V 18.40625 C 11,17.57535 10.795295,16.338872 9.796875,15.826172 10.795295,15.313472 11,14.07514 11,13.24414 V 8.2109374 C 11.00027,6.4783374 10.81538,6 12,6 V 4 Z"
     id="path2"
     inkscape:connector-curvature="0"
     style="fill:#ffffff"
     sodipodi:nodetypes="cssccssccssccssccccccccccc" />
  <path
     d="m 20.276953,4 c 1.77683,0 2.722656,0.7063656 2.722656,2.5097656 v 2.4414063 c 0,0.0161 0.002,0.032728 0.002,0.048828 h -0.002 v 3.5957031 c 0,1.1138 0.0342,2.404297 1.015625,2.404297 H 25 v 2 h -0.984766 c -0.98148,0 -1.015625,1.290497 -1.015625,2.404297 V 23 h 0.002 c -2e-5,0.0162 -0.002,0.03273 -0.002,0.04883 v 2.441406 C 22.999609,27.293634 22.053783,28 20.276953,28 H 20 v -2 c 1.18455,0 1,-0.478337 1,-2.210937 V 18.40625 c 0,-0.8309 0.204705,-2.067378 1.203125,-2.580078 C 21.204705,15.313472 21,14.07514 21,13.24414 V 8.2109374 C 20.99973,6.4783374 21.18462,6 20,6 V 4 Z"
     id="path823"
     inkscape:connector-curvature="0"
     style="opacity:0.6;fill:#000000;stroke:#000000;stroke-width:2;stroke-linejoin:round;stroke-miterlimit:4;stroke-dasharray:none"
     sodipodi:nodetypes="cssccssccssccssccccccccccc" />
  <path
     sodipodi:nodetypes="cssccssccssccssccccccccccc"
     style="fill:#ffffff"
     inkscape:connector-curvature="0"
     id="path825"
     d="m 20.276953,4 c 1.77683,0 2.722656,0.7063656 2.722656,2.5097656 v 2.4414063 c 0,0.0161 0.002,0.032728 0.002,0.048828 h -0.002 v 3.5957031 c 0,1.1138 0.0342,2.404297 1.015625,2.404297 H 25 v 2 h -0.984766 c -0.98148,0 -1.015625,1.290497 -1.015625,2.404297 V 23 h 0.002 c -2e-5,0.0162 -0.002,0.03273 -0.002,0.04883 v 2.441406 C 22.999609,27.293634 22.053783,28 20.276953,28 H 20 v -2 c 1.18455,0 1,-0.478337 1,-2.210937 V 18.40625 c 0,-0.8309 0.204705,-2.067378 1.203125,-2.580078 C 21.204705,15.313472 21,14.07514 21,13.24414 V 8.2109374 C 20.99973,6.4783374 21.18462,6 20,6 V 4 Z" />
</svg>

<svg xmlns="http://www.w3.org/2000/svg" viewBox="0 0 32 32"><path d="M11.723 4C9.946 4 9 4.706 9 6.51V8.95L8.998 9H9v3.596C9 13.71 8.966 15 7.985 15H7v2h.985C8.966 17 9 18.29 9 19.404V23h-.002l.002.049v2.441c0 1.804.946 2.51 2.723 2.51H12v-2c-1.185 0-1-.478-1-2.21v-5.384c0-.83-.205-2.067-1.203-2.58.998-.513 1.203-1.75 1.203-2.582V8.211C11 6.478 10.815 6 12 6V4z" opacity=".6" stroke="#000" stroke-width="2" stroke-linejoin="round"/><path d="M11.723 4C9.946 4 9 4.706 9 6.51V8.95L8.998 9H9v3.596C9 13.71 8.966 15 7.985 15H7v2h.985C8.966 17 9 18.29 9 19.404V23h-.002l.002.049v2.441c0 1.804.946 2.51 2.723 2.51H12v-2c-1.185 0-1-.478-1-2.21v-5.384c0-.83-.205-2.067-1.203-2.58.998-.513 1.203-1.75 1.203-2.582V8.211C11 6.478 10.815 6 12 6V4z" fill="#fff"/><path d="M20.277 4C22.054 4 23 4.706 23 6.51V8.95l.002.049H23v3.596C23 13.71 23.034 15 24.015 15H25v2h-.985C23.034 17 23 18.29 23 19.404V23h.002l-.002.049v2.441c0 1.804-.946 2.51-2.723 2.51H20v-2c1.185 0 1-.478 1-2.21v-5.384c0-.83.205-2.067 1.203-2.58-.998-.513-1.203-1.75-1.203-2.582V8.211C21 6.478 21.185 6 20 6V4z" opacity=".6" stroke="#000" stroke-width="2" stroke-linejoin="round"/><path d="M20.277 4C22.054 4 23 4.706 23 6.51V8.95l.002.049H23v3.596C23 13.71 23.034 15 24.015 15H25v2h-.985C23.034 17 23 18.29 23 19.404V23h.002l-.002.049v2.441c0 1.804-.946 2.51-2.723 2.51H20v-2c1.185 0 1-.478 1-2.21v-5.384c0-.83.205-2.067 1.203-2.58-.998-.513-1.203-1.75-1.203-2.582V8.211C21 6.478 21.185 6 20 6V4z" fill="#fff"/></svg>
